X:1
T:Piano Sonata No. 14 in C♯ minor (“Moonlight”)
T:Presto agitato
T:Piano Sonata No. 14 – “Moonlight” – Op. 27, No. 2
T:Movement III
T:Ludwig van Beethoven
T:OpenScore (CC0)
T:OpenScore (CC0)
T:OpenScore (CC0)
T:OpenScore (CC0)
T:OpenScore (CC0)
T:OpenScore (CC0)
T:OpenScore (CC0)
T:OpenScore (CC0)
T:OpenScore (CC0)
T:OpenScore (CC0)
T:OpenScore (CC0)
T:OpenScore (CC0)
C:Ludwig van Beethoven
Z:OpenScore (CC0)
%%score { 1 | ( 2 3 4 ) }
L:1/8
Q:1/4=155
M:4/4
K:E
V:1 bass nm="Piano" snm="Pno."
V:2 bass 
V:3 bass 
V:4 bass 
V:1
"^Presto agitato"!p! z/ (G,,/C,/E,/ G,/C,/E,/G,/ C/E,/G,/C/[K:treble] E/G,/C/E/ |: %1
 G/C/E/G/ c/E/G/c/ e/G/c/e/ .[Gceg]).[Gceg] | %2
[K:bass]!p! z/ (G,,/^B,,/D,/ G,/B,,/D,/G,/ ^B,/D,/G,/B,/[K:treble] D/G,/^B,/D/ | %3
 G/^B,/D/G/ ^B/D/G/B/ d/G/B/d/ .[GBdg]).[GBdg] | %4
[K:bass]!p! z/ (C,/^E,/G,/ C/E,/G,/C/[K:treble] ^E/G,/C/E/ G/C/E/G/ | %5
 c/^E/G/c/ ^e/G/c/e/ g/c/e/g/ .[cegc']).[cegc'] | %6
[K:bass]!p! z/ (C,/F,/A,/[K:treble] .C/)(C/F/A/ .c/)(c/f/a/ .[cfc']).[cfc'] | %7
[K:bass]!p! z/ (C,/E,/^^F,/[K:treble] .C/)(C/E/^^F/ .c/)(c/e/^^f/ .[cfc']).[cfc'] | %8
!f! .[^Bg^b] (G/g/ G/g/^A/g/ B/g/c/g/ d/g/B/g/ | d/g/c/g/ f/g/e/g/ d/g/c/g/ ^B/g/=A/^^f/ | %10
 (G/)g/G/g/ G/g/^A/g/ ^B/g/c/g/ d/g/B/g/ | d/g/c/g/ f/g/e/g/ d/g/c/g/ ^B/g/=A/^^f/ | %12
 (G/)g/A/^^f/ G/g/A/f/ G/g/A/f/ G/g/A/f/ | .[Gg]2) !fermata!G,6 | %14
[K:bass]!p! z/ (G,,/C,/E,/ G,/C,/E,/G,/ C/E,/G,/C/[K:treble] E/G,/C/E/ | %15
 G/C/E/G/ c/E/G/c/ e/e/g/c'/ .[ee']).[ee'] | %16
[K:bass]!p! z/ (E,/^^F,/C/ E/F,/C/E/[K:treble] ^^F/C/E/F/ c/E/F/c/ | %17
 e/^^F/c/e/ ^^f/c/e/f/ c'/e/f/c'/ .[ee']).[ee'] | %18
[K:bass]!p!"_cresc." z/ (D,/^A,/C/ D/A,/C/D/[K:treble] ^A/C/D/A/ c/D/A/c/ | %19
 d/^A/c/d/ ^a/c/d/a/ c'/a/d/c/ a/d/c/A/ |!p! .B2) (!>!d4 B>G | %21
{^^FG^A} G2 ^^F2-!<(! F)(F!<)!!mp!!>(!d>F!>)! |!p! ^A2 G2-!<(! G)(G!<)!!mp!!>(!d>G!>)! | %23
!p! B2 ^A2-!<(! A)(A!<)!!mp!!>(!d>A)!>)! |!p!"_cresc." .B [dd']2 [dd']- [dd'].[dd'].[Bb].[Gg] | %25
 .[Gg] [^^F^^f]2 [Ff]- [Ff].[Ff].[dd'].[Ff] | .[^A^a] [Gg]2 [Gg]- [Gg].[Gg].[dd'].[Gg] | %27
 .[Bb] [^A^a]2 [Aa]- [Aa].[Aa].[dd'].[Aa] | [^B^b]4 [cc']4 | (!trill(!T[^A^a]2{ga} [=B=b]6) | %30
 [Gg]4 [=A=a]4 | (!trill(!T[^^F^^f]2{^ef} [Gg]6) |!ff! [=Ace=a]4- [Acea]/!p!(e/f/g/ a/b/c'/b/ | %33
 a/e/f/g/ a/b/c'/b/ a/e/f/g/ a/b/c'/b/ |"_cresc." a/e/f/g/ a/b/c'/=d'/ e'/^d'/e'/d'/ e'/c'/b/a/ | %35
!p! g4) (!trill(!T^a4{ga} | .g2)!ff! [=A,CE=A]2- [A,CEA]/!p!(E/F/G/ A/B/c/B/ | %37
 A/E/F/G/ A/B/c/B/ A/E/F/G/ A/B/c/B/ |"_cresc." A/E/F/G/ A/B/c/B/ A/E/F/G/ A/B/c/B/ | %39
 A/E/F/G/ A/B/c/=d/ e/f/g/a/ b/c'/=d'/^d'/ |!f! [ee']4) [Gg]4 | [Bb]4 ([^^F,C^^F]4 | %42
 .[G,B,G])!p! .[DB].[DB].[DB] .[DB].[DB].[D^A].[DG] | %43
 .[D^^F] .[Fd].[Fd].[Fd] .[Fd].[Fd].[Gd].[^Ad] | .[Bd] .[DB].[DB].[DB] .[DB].[DB].[D^A].[DG] | %45
 .[D^^F] .[Fd].[Fd].[Fd] .[Fd].[Fd].[Gd].[^Ad] | .[Bd] .[Bd]([Bd][GB]) z .[ce]([ce][Gc]) | %47
 z .[Bd]([Bd][GB]) z .[^Ad]([Ad][^^FA]) | %48
 .[GB]!p!"_cresc." .[Bdb].[Bdb].[Bdb] .[Bdb].[Bdb].[^Ac^a].[GBg] | %49
 .[^^F^A^^f]!f! .[efe'].[efe'].[efe'] .[efe'].[efe'].[dfd'].[cfc'] | %50
 .[Bgb]!p!"_cresc." .[Bdb].[Bdb].[Bdb] .[Bdb].[Bdb].[^Ac^a].[GBg] | %51
 .[^^F^A^^f]!f! .[efe'].[efe'].[efe'] .[efe'].[efe'].[dfd'].[cfc'] | %52
 .[Bgb]!p! .[gb]([gb][bd']) z .[gc']([gc'][c'e']) | z .[gb]([gb][bd']) z .[^^f^a]([fa][ad']) | %54
 z"_cresc." .[db]([db][gd']) z .[c=a]([ca][ec']) | %55
 z .[Bg]([Bg][db])!f!"_dim." z .[^A^^f]([Af][c^a]) |!p! [Bg]2 z2 z2 (B>G | %57
 ^^F2) (.[CFd]2 .[CFd]2 .[CFd]2) |{B,G} d6 (b>g | ^^f2) (.[cfd']2 .[cfd']2 .[cfd']2) | %60
!-(!{Bg} d'4!-(!{c^^f} d'4 |{Bg} d'4{c^^f} d'4 | %62
"_cresc." (B,/G/D/G/ B,/G/D/G/ B,/G/D/G/ B,/G/D/G/ | ^B,/F/D/F/ B,/F/D/F/ B,/F/D/F/ B,/F/D/F/) |1 %64
[K:bass] .[E,G,CE]/(G,,/C,/E,/ G,/C,/E,/G,/ C/E,/G,/C/[K:treble] E/G,/C/E/) :|2 %65
[K:bass] .[^E,G,C^E]/(C,/E,/G,/ C/E,/G,/C/[K:treble] ^E/G,/C/E/ G/C/E/G/ || %66
 c/^E/G/c/ ^e/G/c/e/ g/c/e/g/ .[cegc']).[cegc'] | %67
[K:bass]!p! z/ (C,/^E,/G,/ C/E,/G,/C/[K:treble] ^E/G,/C/E/ G/C/E/G/ | %68
 c/^E/G/c/ ^e/G/c/e/ g/c/e/g/ .[cegc']).[cegc'] | %69
[K:bass]!p! z/ (C,/F,/A,/[K:treble] .C/)(C/F/A/ .c/)(c/f/a/ .[cfac']).[cfac'] | %70
[K:bass]!p! z/ (C,/G,/B,/[K:treble] .C/)(C/G/B/ .c/)(c/g/b/ .[cgbc']).[cgbc'] | %71
!p! .[cfac']2!p! (!>!c4 A>F |{^EFG} F2 ^E2-!<(! E)(E!<)!!mf!!>(!c>E!>)! | %73
!p! G2 F2-!<(! F)(F!<)!!mf!!>(!c>F!>)! |!p! A2 G2-!<(! G)(G!<)!!mf!!>(!c>G!>)! | %75
!p! (A/)c/A/c/ F/c/A/c/ F/c/A/c/ F/c/A/c/ | G/c/B/c/ G/c/B/c/ G/c/B/c/ G/c/B/c/ | %77
 F/)c/A/c/ F/c/A/c/ F/c/A/c/ F/c/A/c/ |"_cresc." F/=d/A/d/ F/d/A/d/ A/d/=c/d/ A/d/c/d/ | %79
 =G/!p!=d/B/d/ G/d/B/d/ G/d/B/d/ G/d/B/d/ | A/=d/=c/d/ A/d/c/d/ A/d/c/d/ A/d/c/d/ | %81
 =G/=d/B/d/ G/d/B/d/ G/d/B/d/ G/d/B/d/ | ^G/=d/B/d/ G/c/B/c/ G/c/B/c/ G/c/B/c/ | %83
 F/c/A/c/ F/c/A/c/ F/f/A/f/ F/f/A/f/ | F/f/[G^d]/f/ F/f/[Gd]/f/ F/f/[Gd]/f/ F/f/[Gd]/f/ | %85
 E/e/c/e/ E/e/c/e/ E/e/c/e/ E/e/c/e/ | D/d/c/d/ D/d/c/d/ D/d/c/d/ D/d/c/d/ | [D^Bd]2!p! (G4 AG | %88
 F2 GF E2 FE | D2 ED C2 DC |[I:staff +1] [D,F,^B,]4 [C,E,C]4 | %91
{^B,,G,}[I:staff -1] D2)"_cresc." g2- g.g.a.g | .f.[Acf].[Bdg].[Acf] .[GBe].[GBe].[Acf].[GBe] | %93
 .[FAd].[FAd].[GBe].[FAd]!mp! .[EGc].[EGc].[FAd].[EGc] |!p!!<(! [DF^B]4 [CEc]4!<)! | %95
!mf!!>(!{^B,F-} [Fd]6 [CEc]2!>)! |!p!!<(! (.[DF^B]2 .[DFB]2 .[CEc]2 .[CEc]2)!<)! | %97
!mf!!>(!{^B,F-} [Fd]6 ([CE]c)!>)! |!p!!<(! ([DF]^B)([DF]B) ([CE]c)([CE]c)!<)! | %99
!mf! ([^B,F]d)([B,F]d)"_dim." ([CE]c)([CE]c) |!p! [A,CDA]8 |!pp! [G,^B,DG]8 | %102
[K:bass] z/!p! (G,,/C,/E,/ G,/C,/E,/G,/ C/E,/G,/C/[K:treble] E/G,/C/E/ | %103
 G/C/E/G/ c/E/G/c/ e/G/c/e/ .[Gceg]).[Gceg] | %104
[K:bass]!p! z/ (G,,/^B,,/D,/ G,/B,,/D,/G,/ ^B,/D,/G,/B,/[K:treble] D/G,/^B,/D/ | %105
 G/^B,/D/G/ ^B/D/G/B/ d/G/B/d/ .[GBdg]).[GBdg] | %106
[K:bass]!p! z/ (C,/^E,/G,/ C/E,/G,/C/[K:treble] ^E/G,/C/E/ G/C/E/G/ | %107
 c/^E/G/c/ ^e/G/c/e/ g/c/e/g/ .[cegc']).[cegc'] | %108
[K:bass]!p! z/ (C,/F,/A,/[K:treble] .C/)(C/F/A/ .c/)(c/f/a/ .[cfc']).[cfc'] | %109
[K:bass]!p! z/ (C,/E,/^^F,/[K:treble] .C/)(C/E/^^F/ .c/)(c/e/^^f/ .[cfc']).[cfc'] | %110
!f! [^Bg^b] (G/g/ G/g/^A/g/ B/g/c/g/ d/g/B/g/ | d/g/c/g/ f/g/e/g/ d/g/c/g/ ^B/g/=A/^^f/ | %112
 (G/)g/G/g/ G/g/^A/g/ ^B/g/c/g/ d/g/B/g/ | d/g/c/g/ f/g/e/g/ d/g/c/g/ ^B/g/=A/^^f/ | %114
 G/)(g/A/^^f/ G/g/A/f/ G/g/A/f/ G/g/A/f/ | .[Gg]2) !fermata!G,6 |!p! z2 (G4 E>C | %117
{^B,CD} C2 ^B,2-!<(! B,)(B,!<)!!mf!!>(!G>B,!>)! |!p! D2 C2-!<(! C)(C!<)!!mf!!>(!G>C!>)! | %119
!p! E2 D2-!<(! D)(D!<)!!mf!!>(!G>D!>)! |!p! .E)"_cresc." [Gg]2 [Gg]- [Gg].[Gg].[Ee].[Cc] | %121
 .[Cc] [^B,^B]2 [B,B]- [B,B].[B,B].[Gg].[B,B] | .[Dd] [Cc]2 [Cc]- [Cc].[Cc].[Gg].[Cc] | %123
 .[Ee] [Dd]2 [Dd]- [Dd].[Dd].[Gg].[Dd] | [^E^e]4 [Ff]4 | (!trill(!T[Dd]2{cd} [=E=e]6) | %126
 [Cc]4 [=D=d]4 | (!trill(!T[^B,^B]2{^AB} [Cc]6) |!ff! [=DFA=d]4- [DFAd]/!p!(A/B/c/ d/e/f/e/ | %129
 =d/A/B/c/ d/e/f/e/ d/A/B/c/ d/e/f/e/ |"_cresc." =d/A/B/c/ d/e/f/=g/ a/^g/b/a/ =g/f/e/d/ | %131
!p! c4) (!trill(!T^d4{cd} | %132
 .c2)[K:bass]!ff! [=D,F,A,=D]2- [D,F,A,D]/!p!(A,/B,/C/[K:treble] =D/E/F/E/ | %133
 =D/A,/B,/C/ D/E/F/E/ D/A,/B,/C/ D/E/F/E/ |"_cresc." =D/A,/B,/C/ D/E/F/E/ D/A,/B,/C/ D/E/F/E/ | %135
 =D/A,/B,/C/ D/E/F/=G/ A/B/c/=d/ e/f/=g/^g/ |!f! [Aa]4) [Cc]4 | [Ee]4[K:bass] ([^B,,F,^B,]4 | %138
 [C,E,C])[K:treble]!p! .[G,E].[G,E].[G,E] .[G,E].[G,E].[G,D].[G,C] | %139
 .[G,^B,] .[B,G].[B,G].[B,G] .[B,G].[B,G].[CG].[DG] | %140
 .[EG] .[G,E].[G,E].[G,E] .[G,E].[G,E].[G,D].[G,C] | %141
 .[G,^B,] .[B,G].[B,G].[B,G] .[B,G].[B,G].[CG].[DG] | .[EG] .[EG]([EG][CE]) z .[FA]([FA][CF]) | %143
 z .[EG]([EG][CE]) z .[DG]([DG][^B,D]) | %144
!p! .[CE]"_cresc." .[EGe].[EGe].[EGe] .[EGe].[EGe].[DFd].[CEc] | %145
 .[^B,D^B]!f! .[Bd^b].[Bdb].[Bdb] .[Bdb].[Bdb].[cec'].[dfd'] | %146
!p! .[ege']"_cresc." .[EGe].[EGe].[EGe] .[EGe].[EGe].[DFd].[CEc] | %147
 .[^B,D^B]!f! .[Bd^b].[Bdb].[Bdb] .[Bdb].[Bdb].[cec'].[dfd'] | %148
 .[ege']!p! .[gc']([gc'][eg]) z .[ac']([ac'][fa]) | z .[eg]([eg][ce]) z .[dg]([dg][^Bd]) | %150
"_cresc." z .[cg]([cg][Ge]) z .[Af]([Af][F=d]) | z .[Ge]([Ge][Ec]) z .[F^d]([Fd][D^B]) | %152
!p! [Ec]2 z2 z2 (E>C | ^B,2) (.[F,B,G]2 .[F,B,G]2 .[F,B,G]2) |!-(!{E,C} G6 (e>c | %155
 ^B2) (.[FBg]2 .[FBg]2 .[FBg]2) |{Ec} g4{F^B} g4 |{Ec} g4{F^B} g4 | %158
[K:bass]"_cresc." (E,/C/G,/C/ E,/C/G,/C/ E,/C/G,/C/ E,/C/G,/C/ | %159
 [C,^E,]/C/G,/C/ [C,E,]/C/G,/C/ [C,E,]/C/G,/C/ [C,E,]/C/G,/C/ | %160
 .[C,F,A,C]/)(C,/F,/A,/ C/F,/A,/C/[K:treble] F/A,/C/F/ A/C/F/A/ | %161
 c/F/A/c/ f/A/c/f/ a/c/f/a/ .[cfac']).[cfac'] | %162
[K:bass]!p! z/ (C,/E,/G,/ C/E,/G,/C/[K:treble] E/G,/C/E/ G/C/E/G/ | %163
 c/E/G/c/ e/G/c/e/ g/c/e/g/ .[cegc']).[cegc'] | %164
[K:bass]!p! z C,/4-E,/4-^^F,/4-^A,/4- [C,E,F,A,C]2- [C,E,F,A,C][K:treble] C/4-E/4-^^F/4-^A/4- [CEFAc]2- | %165
 [CEFAc] c/4-e/4-^^f/4-^a/4- !fermata![cefac']6 | %166
[K:bass]!p! z =A,,/4-^B,,/4-D,/4-^F,/4- [A,,B,,D,F,=A,]2- [A,,B,,D,F,A,][K:treble] A,/4-^B,/4-D/4-F/4- [A,B,DFA]2- | %167
 [A,B,DFA]/A/-^B/-d/- !fermata![ABda]6 |[K:treble]!p! z/ (G/E/G/ C/G/E/G/ C/G/E/G/ C/G/E/G/ | %169
 D/G/F/G/ D/G/F/G/ D/!<(!G/F/G/!<)!!mp!!>(! D/G/F/G/!>)! | %170
!p! C/)G/E/G/ C/G/E/G/ C/!<(!G/E/G/!<)!!mf!!>(! C/G/E/G/!>)! | %171
!p! ^B,/G/F/G/ B,/G/F/G/ B,/!<(!G/F/G/!<)!!mf!!>(! B,/G/F/G/!>)! | .[CEG]2!p! ([Gg]4 [Ee]>[Cc] | %173
 [Cc]2 [^B,^B]2- [B,B])!<(!([B,B]!<)!!mp!!>(![Gg]>[B,B]!>)! | %174
!p! [Dd]2 [Cc]2- [Cc])!<(!([Cc]!<)!!mf!!>(![Gg]>[Cc]!>)! | %175
!p! [Ee]2 [Dd]2- [Dd])!<(!([Dd]!<)!!mf!!>(![Gg]>[Dd])!>)! | %176
!p!"_cresc." ([Ff][Ee]).[cc'].[Ee] ([Ff][^E^e]).[cc'].[Ee] | %177
 ([Gg][Ff]).[cc'].[Ff] ([Aa][Gg]).[cc'].[Gg] |!f! (3(afc (3AFC (3AFC[I:staff +1] (3A,F,C, | %179
 A,/F,/C,/A,,/ C,/F,/A,/C/[I:staff -1] F/A/c/f/ a/f/c/A/) | %180
 (3(af=d (3AF=D (3AFD[I:staff +1] (3A,F,=D, | %181
 A,/F,/=D,/A,,/ D,/F,/A,/=D/[I:staff -1] F/A/=d/f/ a/f/d/A/) | %182
!f! (3(c'^a^^f (3ec^A (3ecA ^^F/E/C/^A,/ | %183
 E/C/[I:staff +1]^A,/^^F,/ E,/C,/E,/F,/ (6:4:6A,/[I:staff -1]C/E/^^F/^A/c/ (6:4:6e/^^f/^a/c'/a/e/) | %184
 (3(e'c'g (3ecG (3ecG E/c/G/E/ | C/G/E/C/[I:staff +1] G,/E/C/G,/ E,/C/G,/E,/ C,/G,/E,/C,/ | %186
 (G,,/)A,,/^A,,/B,,/ ^B,,/C,/^^C,/D,/ E,/^E,/F,/^^F,/ G,/=A,/^A,/=B,/ | %187
[I:staff -1] ^B,/C/^^C/D/ (5:4:5E/^E/F/^^F/G/ (5:4:5A/^A/=B/^B/^c/ (3=d/^d/=e/ ^e/4^f/4^^f/4g/4 | %188
 (!trill(!Ta8) (33:8:30gfedfc^BdAGFAEDFC^B,D[I:staff +1]A,G,F,A,E,D,F,C,"_dim."^B,, (.D,2 .A,,2 .G,,2) | %189
[Q:1/4=75]"^Adagio"!p! (^^F,,8) | G,,8 |!p![Q:1/4=155]"^Tempo I" C,2)[I:staff -1] z2 z2 (E>C | %192
 ^B,2) (.[F,B,G]2 .[F,B,G]2 .[F,B,G]2) |{E,C} G6 (e>c | ^B2) (.[FBg]2 .[FBg]2 .[FBg]2) | %195
{Ec} g4{F^B} g4 |{Ec} g4{F^B} g4 |!f!{Dc} .g/(E/G/c/ e/G/c/e/ g/c/e/g/ c'/e/g/c'/ | %198
 e'/c'/g/e/ c'/g/e/c/ g/e/c/G/ e/c/G/E/ | c/G/E/C/ G/E/C/G,/[I:staff +1] E/C/G,/E,/ C/G,/E,/G,/ | %200
 C,2)[I:staff -1] z2!ff! .[cegc']2 z2 | .[CEGc]2 z2 z4 |] %202
V:2
 .C,,.G,,.C,,.G,, .C,,.G,,.C,,.G,, |: .C,,.G,,.C,,.G,, .C,,.G,,!ped!.[C,,C,].G,,!ped-up! | %2
 .^B,,,.G,,.B,,,.G,, .B,,,.G,,.B,,,.G,, | %3
 .^B,,,.G,,.B,,,.G,, .B,,,.G,,!ped!.[B,,,^B,,].G,,!ped-up! | %4
 .=B,,,.G,,.B,,,.G,, .B,,,.G,,.B,,,.G,, | .B,,,.G,,.B,,,.G,, .B,,,.G,,!ped!.[B,,,B,,]!ped-up!.G,, | %6
 .A,,,.A,,.A,,,.A,, .A,,,.A,,!ped!.A,,,.A,,!ped-up! | %7
 .A,,,.A,,.A,,,.A,, .A,,,.A,,!ped!.A,,,.A,,!ped-up! | .[G,,,G,,] (^B,B,C DEFD | FEAG FEDC | %10
 ^B,)(B,B,C DEFD | FEAG FEDC | .[G,^B,]).[G,C].[G,B,].[G,C] .[G,B,].[G,C].[G,B,].[G,C] | %13
 .[G,^B,]2 !fermata![G,,,G,,]6 | .C,,.G,,.C,,.G,, .C,,.G,,.C,,.G,, | %15
 .C,,.G,,.C,,.G,, .C,,.G,,!ped!.[C,,C,].G,,!ped-up! | .^A,,,.C,.^A,,.C, .A,,.C,.A,,.C, | %17
 .^A,,.C,.A,,.C, .A,,.C,!ped!.[^A,,,A,,].C,!ped-up! | .^^F,,,.D,.^^F,,.D, .F,,.D,.F,,.D, | %19
 .^^F,,.D,.F,,.D, .F,,.D,.F,,.D, | (G,,/D,/B,,/D,/ G,,/D,/B,,/D,/ G,,/D,/B,,/D,/ G,,/D,/B,,/D,/ | %21
 ^A,,/D,/C,/D,/ A,,/D,/C,/D,/ A,,/D,/C,/D,/ A,,/D,/C,/D,/ | !//-!B,,2) D,2 !//-!B,,2 D,2 | %23
 !//-!^^F,,2 D,2 !//-!F,,2 D,2 | G,,/D,/B,,/D,/ G,,/D,/B,,/D,/ G,,/D,/B,,/D,/ G,,/D,/B,,/D,/ | %25
 ^A,,/D,/C,/D,/ A,,/D,/C,/D,/ A,,/D,/C,/D,/ A,,/D,/C,/D,/ | !//-!B,,2 D,2 !//-!B,,2 D,2 | %27
 !//-!^^F,,2 D,2 !//-!F,,2 D,2 | ^F,,/D,/G,,/D,/ F,,/D,/G,,/D,/ E,,/C,/G,,/C,/ E,,/C,/G,,/C,/ | %29
 E,,/C,/F,,/C,/ D,,/B,,/F,,/B,,/ D,,/B,,/F,,/B,,/ D,,/B,,/F,,/B,,/ | %30
 =D,,/B,,/E,,/B,,/ D,,/B,,/E,,/B,,/ C,,/A,,/E,,/A,,/ C,,/A,,/E,,/A,,/ | %31
 C,,/^A,,/^D,,/A,,/ B,,,/G,,/D,,/G,,/ B,,,/G,,/D,,/G,,/ B,,,/G,,/D,,/G,,/ | %32
 [C,,E,,=A,,C,]4- [C,,E,,A,,C,]2 z2 |[K:treble] .[CEA]2 z2 .[CEA]2 z2 | %34
 [CEA]2 [CEA]2 [CEA]2 [CEA]2 | (D/B/G/B/ D/B/G/B/ D/c/^^F/c/ D/c/F/c/ | %36
 .[EGB]2)[K:bass] [C,,E,,=A,,C,]2- [C,,E,,A,,C,]2 z2 | z2 .[C,E,A,]2 z2 .[C,E,A,]2 | %38
 z [C,E,A,] z [C,E,A,] z [C,E,A,] z [C,E,A,] | [C,E,A,]2 z2 z4 | %40
 (C,/A,/E,/A,/ C,/A,/E,/A,/ ^^C,/B,/^E,/B,/ C,/B,/E,/B,/ | %41
 D,/B,/G,/B,/ D,/B,/G,/B,/ D,,/D,/^^C,/D,/ C,/D,/C,/D,/ | .G,,) .G,.G,.G, .G,.G,.^A,.B, | %43
 .[D,C] .[CD].[CD].[CD] .[CD].[CD].[B,D].[^A,D] | .[G,,G,] .G,.G,.G, .G,.G,.^A,.B, | %45
 .[D,C] .[CD].[CD].[CD] .[CD].[CD].[B,D].[^A,D] | .G,, .[G,B,]([G,B,][B,D]) .C, .[G,C]([G,C][CE]) | %47
 .D, .[G,B,]([G,B,][B,D]) .D, .[^^F,^A,]([F,A,][A,D]) | %48
 .[G,,,G,,] .[G,,D,].[G,,D,].[G,,D,] .[G,,D,].[G,,D,].[^A,,D,].[B,,D,] | %49
 .[D,,C,D,] .[D,C].[D,C].[D,C] .[D,C].[D,C].[D,B,].[D,^A,] | %50
 .[G,,,G,,] .[G,,D,].[G,,D,].[G,,D,] .[G,,D,].[G,,D,].[^A,,D,].[B,,D,] | %51
 .[D,,C,D,] .[D,C].[D,C].[D,C] .[D,C].[D,C].[D,B,].[D,^A,] | %52
 .[G,,G,] .[B,D]([B,D][G,B,]) .C, .[CE]([CE][G,C]) | %53
 .D, .[B,D]([B,D][G,B,]) .C, .[^A,D]([A,D][^^F,A,]) | %54
 B,,[K:treble] .[DG]([DG][B,D])[K:bass] .C,[K:treble] .[E=A]([EA][CE]) | %55
[K:bass] .D,[K:treble] .[DG]([DG][B,D])[K:bass] .D,[K:treble] .[C^^F]([CF][^A,C]) | %56
[K:bass] (G,,/G,/D,/G,/ G,,/G,/D,/G,/ G,,/G,/D,/G,/ G,,/G,/D,/G,/ | %57
 G,,/)^A,/D,/A,/ G,,/A,/D,/A,/ G,,/A,/D,/A,/ G,,/A,/D,/A,/ | %58
 G,,/G,/D,/G,/ G,,/G,/D,/G,/ G,,/G,/D,/G,/ G,,/G,/D,/G,/ | %59
 G,,/^A,/D,/A,/ G,,/A,/D,/A,/ G,,/A,/D,/A,/ G,,/A,/D,/A,/ | %60
 G,,/!-)!G,/D,/G,/ G,,/G,/D,/G,/ G,,/!-)!^A,/D,/A,/ G,,/A,/D,/A,/ | %61
 G,,/G,/D,/G,/ G,,/G,/D,/G,/ G,,/^A,/D,/A,/ G,,/A,/D,/A,/ | %62
 (G,,/G,/D,/G,/ G,,/G,/D,/G,/ G,,/G,/D,/G,/ G,,/G,/D,/G,/ | %63
 G,,/F,/D,/F,/ G,,/F,/D,/F,/ G,,/F,/D,/F,/ G,,/F,/D,/F,/) |1 .C,,.G,,.C,,.G,, .C,,.G,,.C,,.G,, :|2 %65
 .C,,.G,,.C,,.G,, .C,,.G,,.C,,.G,, || .C,,.G,,.C,,.G,, .C,,.G,,!ped!.[C,,C,].G,,!ped-up! | %67
 .=B,,,.G,,.B,,,.G,, .B,,,.G,,.B,,,.G,, | .B,,,.G,,.B,,,.G,, .B,,,.G,,!ped!.[B,,,B,,].G,,!ped-up! | %69
 .A,,,.A,,.A,,,.A,, .A,,,.A,,!ped!.A,,,.A,,!ped-up! | %70
 .^E,,,.^E,,.E,,,.E,, .E,,,.E,,!ped!.E,,,.E,,!ped-up! | %71
 [F,,,F,,]/(C/A,/C/ F,/C/A,/C/ F,/C/A,/C/ F,/C/A,/C/ | %72
 G,/C/B,/C/ G,/C/B,/C/ G,/C/B,/C/ G,/C/B,/C/ | A,/)C/A,/C/ A,/C/A,/C/ A,/C/A,/C/ A,/C/A,/C/ | %74
 ^E,/C/E,/C/ E,/C/E,/C/ E,/C/E,/C/ E,/C/E,/C/ | .F,2 (C4 A,>F, | %76
 F,2 ^E,2-!<(! E,)(E,!<)!!mf!!>(!C>!>)!E, |!p! G,2 F,2-!<(! F,)(F,!<)!!mf!!>(!C>F,)!>)! | %78
!p! .F,(F,=D>F,)!<(! .F,(F,!<)!!f!!>(!D>F,)!>)! | .=G,2 (=D,4 B,,>=G,, | %80
 =G,,2 F,,2-!<(! F,,)(F,,!<)!!mf!!>(!=D,>F,,!>)! | %81
!p! A,,2 =G,,2-!<(! G,,)(G,,!<)!!mf!!>(!=D,>F,,!>)! | %82
!p! F,,2 ^E,,2-!<(! E,,)(E,,!<)!!mf!!>(!C,>E,,!>)! |!p! .F,,)(F,,A,,F,, .=D,,)(D,,F,,D,, | %84
 ^B,,,4- B,,,)(B,,,^D,,B,,, | .C,,)(C,,E,,C,, .A,,,)(A,,,C,,A,,, | %86
 .F,,,)(F,,,A,,,F,,, .^^F,,,)(F,,,^A,,,F,,, | %87
 G,,,/)!p!G,,/G,,,/G,,/ G,,,/G,,/G,,,/G,,/ G,,,/G,,/G,,,/G,,/ G,,,/G,,/G,,,/G,,/ | %88
 G,,,/G,,/G,,,/G,,/ G,,,/G,,/G,,,/G,,/ G,,,/G,,/G,,,/G,,/ G,,,/G,,/G,,,/G,,/ | %89
 !//-!G,,,2 G,,2 !//-!G,,,2 G,,2 | !//-!G,,,2 G,,2 !//-!G,,,2 G,,2 | %91
 !//-!G,,,2 G,,2 !//-!G,,,2 G,,2 | !//-!G,,,2 G,,2 !//-!G,,,2 G,,2 | %93
 !//-!G,,,2 G,,2 !//-!G,,,2 G,,2 | !//-!G,,,2 G,,2 !//-!G,,,2 G,,2 | %95
 !//-!G,,,2 G,,2 !//-!G,,,2 G,,2 | !//-!G,,,2 G,,2 !//-!G,,,2 G,,2 | %97
 !//-!G,,,2 G,,2 !//-!G,,,2 G,,2 | !//-!G,,,2 G,,2 !//-!G,,,2 G,,2 | %99
 !//-!G,,,2 G,,2 !//-!A,,,2 A,,2 | [F,,,F,,]8 | [G,,,G,,]8 | .C,,.G,,.C,,.G,, .C,,.G,,.C,,.G,, | %103
 .C,,.G,,.C,,.G,, .C,,.G,,!ped!.[C,,C,].G,,!ped-up! | .^B,,,.G,,.B,,,.G,, .B,,,.G,,.B,,,.G,, | %105
 .^B,,,.G,,.B,,,.G,, .B,,,.G,,!ped!.[B,,,^B,,].G,,!ped-up! | %106
 .=B,,,.G,,.B,,,.G,, .B,,,.G,,.B,,,.G,, | .B,,,.G,,.B,,,.G,, .B,,,.G,,!ped!.[B,,,B,,].G,,!ped-up! | %108
 .A,,,.A,,.A,,,.A,, .A,,,.A,,!ped!.A,,,.A,,!ped-up! | %109
 .A,,,.A,,.A,,,.A,, .A,,,.A,,!ped!.A,,,.A,,!ped-up! | [G,,,G,,] (^B,B,C DEFD | FEAG FEDC | %112
 ^B,)(B,B,C DEFD | FEAG FEDC | .[G,^B,]).[G,C].[G,B,].[G,C] .[G,B,].[G,C].[G,B,].[G,C] | %115
 .[G,^B,]2 !fermata![G,,,G,,]6 | C,/G,/E,/G,/ C,/G,/E,/G,/ C,/G,/E,/G,/ C,/G,/E,/G,/ | %117
 D,/G,/F,/G,/ D,/G,/F,/G,/ D,/G,/F,/G,/ D,/G,/F,/G,/ | %118
 E,/G,/E,/G,/ E,/G,/E,/G,/ E,/G,/E,/G,/ E,/G,/E,/G,/ | %119
 ^B,,/G,/B,,/G,/ B,,/G,/B,,/G,/ B,,/G,/B,,/G,/ B,,/G,/B,,/G,/ | %120
 C,/G,/E,/G,/ C,/G,/E,/G,/ C,/G,/E,/G,/ C,/G,/E,/G,/ | %121
 D,/G,/F,/G,/ D,/G,/F,/G,/ D,/G,/F,/G,/ D,/G,/F,/G,/ | %122
 E,/G,/E,/G,/ E,/G,/E,/G,/ E,/G,/E,/G,/ E,/G,/E,/G,/ | %123
 ^B,,/G,/B,,/G,/ B,,/G,/B,,/G,/ B,,/G,/B,,/G,/ B,,/G,/B,,/G,/ | %124
 =B,,/G,/C,/G,/ B,,/G,/C,/G,/ A,,/F,/C,/F,/ A,,/F,/C,/F,/ | %125
 A,,/F,/B,,/F,/ G,,/E,/B,,/E,/ G,,/E,/B,,/E,/ G,,/E,/B,,/E,/ | %126
 =G,,/E,/A,,/E,/ G,,/E,/A,,/E,/ F,,/=D,/A,,/D,/ F,,/D,/A,,/D,/ | %127
 F,,/^D,/G,,/D,/ E,,/C,/G,,/C,/ E,,/C,/G,,/C,/ E,,/C,/G,,/C,/ | [F,,A,,=D,F,]4- [F,,A,,D,F,]2 z2 | %129
 .[F,A,=D]2 z2 .[F,A,D]2 z2 | [F,A,=D]2 [F,A,D]2 [F,A,D]2 [F,A,D]2 | %131
 G,/E/C/E/ G,/E/C/E/ G,/F/^B,/F/ G,/F/B,/F/ | .[A,CE]2 [F,,,A,,,=D,,F,,]2- [F,,,A,,,D,,F,,]2 z2 | %133
 z2 .[F,,A,,=D,]2 z2 .[F,,A,,D,]2 | z [F,,A,,=D,] z [F,,A,,D,] z [F,,A,,D,] z [F,,A,,D,] | %135
 [F,,A,,=D,]2 z2 z4 | F,,/=D,/A,,/D,/ F,,/D,/A,,/D,/ ^^F,,/E,/^A,,/E,/ F,,/E,/A,,/E,/ | %137
 G,,/E,/C,/E,/ G,,/E,/C,/E,/ G,,,/G,,/^^F,,/G,,/ F,,/G,,/F,,/G,,/ | C,, .C,.C,.C, .C,.C,.D,.E, | %139
 .[G,,F,] .[F,G,].[F,G,].[F,G,] .[F,G,].[F,G,].[E,G,].[D,G,] | .[C,,C,] .C,.C,.C, .C,.C,.D,.E, | %141
 .[G,,F,] .[F,G,].[F,G,].[F,G,] .[F,G,].[F,G,].[E,G,].[D,G,] | %142
 .[C,,C,] .[C,E,]([C,E,][E,G,]) .F,, .[C,F,]([C,F,][F,A,]) | %143
 .G,, .[C,E,]([C,E,][E,G,]) .G,, .[^B,,D,]([B,,D,][D,G,]) | %144
 .[C,,C,] .[C,G,].[C,G,].[C,G,] .[C,G,].[C,G,].[D,G,].[E,G,] | %145
 .[G,,F,G,] .[G,F].[G,F].[G,F] .[G,F].[G,F].[G,E].[G,D] | %146
 .[C,,C,] .[C,G,].[C,G,].[C,G,] .[C,G,].[C,G,].[D,G,].[E,G,] | %147
 .[G,,F,G,] .[G,F].[G,F].[G,F] .[G,F].[G,F].[G,E].[G,D] | %148
 .[C,,C,][K:treble] .[CE]([CE][EG])[K:bass] .F,[K:treble] .[CF]([CF][FA]) | %149
[K:bass] .G,[K:treble] .[CE]([CE][EG])[K:bass] .F,[K:treble] .[^B,D]([B,D][DG]) | %150
[K:bass] .E, .[G,C]([G,C][CE]) .F,, .[F,A,]([F,A,][A,=D]) | %151
 .G,, .[E,G,]([E,G,][G,C]) .G,, .[^D,F,]([D,F,][F,^B,]) | %152
 (C,,/C,/G,,/C,/ C,,/C,/G,,/C,/ C,,/C,/G,,/C,/ C,,/C,/G,,/C,/ | %153
 C,,/)D,/G,,/D,/ C,,/D,/G,,/D,/ C,,/D,/G,,/D,/ C,,/D,/G,,/D,/ | %154
 C,,/!-)!C,/G,,/C,/ C,,/C,/G,,/C,/ C,,/C,/G,,/C,/ C,,/C,/G,,/C,/ | %155
 C,,/D,/G,,/D,/ C,,/D,/G,,/D,/ C,,/D,/G,,/D,/ C,,/D,/G,,/D,/ | %156
 C,,/C,/G,,/C,/ C,,/C,/G,,/C,/ C,,/D,/G,,/D,/ C,,/D,/G,,/D,/ | %157
 C,,/C,/G,,/C,/ C,,/C,/G,,/C,/ C,,/D,/G,,/D,/ C,,/D,/G,,/D,/ | %158
 (C,,/C,/G,,/C,/ C,,/C,/G,,/C,/ C,,/C,/G,,/C,/ C,,/C,/G,,/C,/ | %159
 B,,,/B,,/C,,/B,,/ B,,,/B,,/C,,/B,,/ B,,,/B,,/C,,/B,,/ B,,,/B,,/C,,/B,,/ | %160
 .[A,,,A,,]).F,,.A,,,.F,, .A,,,.F,,.A,,,.F,, | %161
 .A,,,.F,,.A,,,.F,, .A,,,.F,,!ped!.[A,,,A,,].F,,!ped-up! | .G,,,.E,,.G,,,.E,, .G,,,.E,,.G,,,.E,, | %163
 .G,,,.E,,.G,,,.E,, .G,,,.E,,!ped!.[G,,,G,,].E,,!ped-up! | %164
!ped! ^^F,,,2- F,,, F,,,/4-^A,,,/4-C,,/4-E,,/4- [F,,,A,,,C,,E,,^^F,,]2- [F,,,A,,,C,,E,,F,,] ^^F,,/4-^A,,/4C,/4-E,/4-!ped-up! | %165
 [F,,A,,C,E,^^F,]2 !fermata![^^F,^A,CE]6 | %166
!ped! ^F,,,2- F,,, F,,,/4-=A,,,/4-^B,,,/4-D,,/4- [F,,,A,,,B,,,D,,F,,]2- [F,,,A,,,B,,,D,,F,,] F,,/4-A,,/4-^B,,/4-D,/4-!ped-up! | %167
 [F,,A,,B,,D,F,]2 !fermata![F,A,^B,D]6 | .C,2 (G,4 E,>C, | C,2 ^B,,2- B,,)(B,,G,>B,, | %170
 D,2 C,2- C,)(C,G,>C, | E,2 D,2- D,)(D,G,>D, | %172
 E,/)G,/E,/G,/ E,/G,/E,/G,/ E,/G,/E,/G,/ E,/G,/E,/G,/ | %173
 F,/G,/F,/G,/ F,/G,/F,/G,/ F,/G,/F,/G,/ F,/G,/F,/G,/ | %174
 E,/G,/E,/G,/ E,/G,/E,/G,/ E,/G,/E,/G,/ E,/G,/E,/G,/ | %175
 ^B,,/G,/B,,/G,/ B,,/G,/B,,/G,/ B,,/G,/B,,/G,/ B,,/G,/B,,/G,/ | !//-!C,2 G,2 !//-!=B,,2 C,2 | %177
 !//-!A,,2 C,2 !//-!^E,,2 C,2 | [F,,,C,,F,,]8- | [F,,,C,,F,,]8 | [F,,,=D,,F,,]8- | [F,,,=D,,F,,]8 | %182
 [^^F,,,C,,^^F,,]8- | [F,,,C,,F,,]8 | [G,,,C,,G,,]8- | [G,,,C,,G,,]8 | x8 | z8 | %188
 [G,^B,F]8 !fermata!x2 !fermata!x2 !fermata!x2 !fermata!x2 | ^^F,,,8 | G,,,8 | %191
 C,,/C,/G,,/C,/ C,,/C,/G,,/C,/ C,,/C,/G,,/C,/ C,,/C,/G,,/C,/ | %192
 C,,/D,/G,,/D,/ C,,/D,/G,,/D,/ C,,/D,/G,,/D,/ C,,/D,/G,,/D,/ | %193
 C,,/C,/G,,/C,/ C,,/C,/G,,/C,/ C,,/C,/G,,/C,/ C,,/C,/G,,/C,/ | %194
 C,,/D,/G,,/D,/ C,,/D,/G,,/D,/ C,,/D,/G,,/D,/ C,,/D,/G,,/D,/ | %195
 C,,/C,/G,,/C,/ C,,/C,/G,,/C,/ C,,/D,/G,,/D,/ C,,/D,/G,,/D,/ | %196
 C,,/C,/G,,/C,/ C,,/C,/G,,/C,/ C,,/D,/G,,/D,/ C,,/D,/G,,/D,/ | %197
 .[C,,G,,C,]/ (E,/G,/C/ E/G,/C/E/[K:treble] G/C/E/G/ c/E/G/c/ | %198
 e/c/G/E/ c/G/E/C/[K:bass] G/E/C/G,/ E/C/G,/E,/ | %199
 C/G,/E,/C,/ G,/E,/C,/G,,/ E,/C,/G,,/E,,/ C,/G,,/E,,/G,,/ | C,,2) z2 .[C,,E,,G,,C,]2 z2 | %201
 .[C,,E,,G,,C,]2 z2 z4 |] %202
V:3
 x8 |: x8 | x8 | x8 | x8 | x8 | x8 | x8 | x G,3- G,4- | G,8 | G,8- | G,8 | x8 | x8 | x8 | x8 | x8 | %17
 x8 | x8 | x8 | x8 | x8 | x8 | x8 | x8 | x8 | x8 | x8 | x8 | x8 | x8 | x8 | x8 |[K:treble] x8 | %34
 x8 | x8 | x2[K:bass] x6 | x8 | x8 | x8 | x8 | x8 | x8 | x8 | x8 | x8 | x8 | x8 | x8 | x8 | x8 | %51
 x8 | x8 | x8 | x[K:treble] x3[K:bass] x[K:treble] x3 | %55
[K:bass] x[K:treble] x3[K:bass] x[K:treble] x3 |[K:bass] x8 | x8 | x8 | x8 | x8 | x8 | x8 | x8 |1 %64
 x8 :|2 x8 || x8 | x8 | x8 | x8 | x8 | x8 | x8 | x8 | x8 | x8 | x8 | x8 | x8 | x8 | x8 | x8 | x8 | %83
 x8 | x8 | x8 | x8 | x8 | x8 | x8 | x8 | x8 | x8 | x8 | x8 | x8 | x8 | x8 | x8 | x8 | x8 | x8 | %102
 x8 | x8 | x8 | x8 | x8 | x8 | x8 | x8 | x G,3- G,4- | G,8 | G,8- | G,8 | x8 | x8 | x8 | x8 | x8 | %119
 x8 | x8 | x8 | x8 | x8 | x8 | x8 | x8 | x8 | x8 | x8 | x8 | x8 | x8 | x8 | x8 | x8 | x8 | x8 | %138
 x8 | x8 | x8 | x8 | x8 | x8 | x8 | x8 | x8 | x8 | x[K:treble] x3[K:bass] x[K:treble] x3 | %149
[K:bass] x[K:treble] x3[K:bass] x[K:treble] x3 |[K:bass] x8 | x8 | x8 | x8 | x8 | x8 | x8 | x8 | %158
 x8 | x8 | x8 | x8 | x8 | x8 | x8 | x8 | x8 | x8 | x8 | x8 | x8 | x8 | x8 | x8 | x8 | x8 | x8 | %177
 x8 | x8 | x8 | x8 | x8 | x8 | x8 | x8 | x8 | x8 | x8 | x16 | x8 | x8 | x8 | x8 | x8 | x8 | x8 | %196
 x8 | x4[K:treble] x4 | x4[K:bass] x4 | x8 | x8 | x8 |] %202
V:4
 x8 |: x8 | x8 | x8 | x8 | x8 | x8 | x8 | x8 | x8 | x8 | x8 | x8 | x8 | x8 | x8 | x8 | x8 | x8 | %19
 x8 | x8 | x8 | x8 | x8 | x8 | x8 | x8 | x8 | x8 | x8 | x8 | x8 | x8 |[K:treble] x8 | x8 | x8 | %36
 x2[K:bass] x6 | x8 | x8 | x8 | x8 | x8 | x8 | x8 | x8 | x8 | x8 | x8 | x8 | x8 | x8 | x8 | x8 | %53
 x8 | x[K:treble] x3[K:bass] x[K:treble] x3 |[K:bass] x[K:treble] x3[K:bass] x[K:treble] x3 | %56
[K:bass] x8 | x8 | x8 | x8 | x8 | x8 | x8 | x8 |1 x8 :|2 x8 || x8 | x8 | x8 | x8 | x8 | x8 | x8 | %73
 x8 | x8 | x8 | x8 | x8 | x8 | x8 | x8 | x8 | x8 | x8 | x8 | x8 | x8 | x8 | [A,C]4 [G,B,]4 | %89
 [F,A,]4 [E,G,]4 | x8 | x8 | x8 | x8 | x8 | x8 | x8 | x8 | x8 | x8 | x8 | x8 | x8 | x8 | x8 | x8 | %106
 x8 | x8 | x8 | x8 | x8 | x8 | x8 | x8 | x8 | x8 | x8 | x8 | x8 | x8 | x8 | x8 | x8 | x8 | x8 | %125
 x8 | x8 | x8 | x8 | x8 | x8 | x8 | x8 | x8 | x8 | x8 | x8 | x8 | x8 | x8 | x8 | x8 | x8 | x8 | %144
 x8 | x8 | x8 | x8 | x[K:treble] x3[K:bass] x[K:treble] x3 | %149
[K:bass] x[K:treble] x3[K:bass] x[K:treble] x3 |[K:bass] x8 | x8 | x8 | x8 | x8 | x8 | x8 | x8 | %158
 x8 | x8 | x8 | x8 | x8 | x8 | x8 | x8 | x8 | x8 | x8 | x8 | x8 | x8 | x8 | x8 | x8 | x8 | x8 | %177
 x8 | x8 | x8 | x8 | x8 | x8 | x8 | x8 | x8 | x8 | x8 | x16 | x8 | x8 | x8 | x8 | x8 | x8 | x8 | %196
 x8 | x4[K:treble] x4 | x4[K:bass] x4 | x8 | x8 | x8 |] %202

